X:1
T:Title
%%score ( 1 2 ) ( 3 4 )
L:1/8
Q:1/4=95
M:4/4
K:C
V:1 treble nm="Grand Piano, Soprano"
V:2 treble 
V:3 bass nm="Choir Pad, Star of the Morning"
V:4 bass 
V:1
 [Ec]2 [Ec]>[Ec] [GB]>[FA] [EG]2 | [FA]2 [Ec]>[Gc] [Ed]4 | [Ge]2 [Ec]>[Ec] dc [FA]2 | %3
w: By~Robert~Lowry * * * * *|||
 [EG]2 [EG]>[CE] [B,D]4 | [CE]2 [EG]>[EG] [FA][EG][CE][EG] | [Ec]2 [Gc]>[GB] [FA]4 | %6
w: |||
 [Fd][Ac][GB][FA] [EG]2 [Gc][Ge] | [Gd]2 [^Fc]>[FA] G4 | [Ec]2 [Ec]>[Ec] [GB]>[FA] [EG]2 | %9
w: |||
 [FA]2 [FA]>[FA] [EG]>[DF] [CE]2 | [Ec]2 [Ec]>[Ec] [Ec] [Ec]3 | %11
w: ||
 [Ec][Ge]- [Ge]/[Ge]/[Fd]- [Fd] [Ec]3- | [Ec]4 z4 |] %13
w: ||
V:2
 x8 | x8 | z4 F2 z2 | x8 | x8 | x8 | x8 | x8 | x8 | x8 | x8 | x8 | x8 |] %13
V:3
 [C,G,]2 [C,G,]>[C,G,] [C,C]2 [C,C]2 | [F,C]2 [C,C]>[E,C] [G,B,]4 | %2
 [C,C]2 [C,G,]>[C,G,] [F,A,]2 [F,C]2 | [C,C]2 [C,C]>[E,G,] G,4 | %4
 [C,G,]2 [C,C]>[C,C] [C,C]2 [C,G,][C,G,] | [C,G,]2 [E,C]>[E,C] [F,C]4 | %6
 A,C[F,C][F,C] [C,C]2 [E,C][C,C] | [D,B,]2 [D,A,]>[D,C] [G,B,]4 | %8
 [C,C]2 [C,G,]>[C,G,] [C,C]2 [C,C]2 | [F,C]2 [F,C]>[F,C] [C,C]>G, [C,G,]2 | %10
 [C,G,]2 [C,G,]>[C,G,] [A,C] [A,C]3 | [A,C][G,C]- [G,C]/[G,C]/[G,B,]- [G,B,] [C,C]3- | [C,C]4 z4 |] %13
V:4
 x8 | x8 | x8 | x8 | x8 | x8 | F,2 z2 z4 | x8 | x8 | x8 | x8 | x8 | x8 |] %13

